X: 27258
T: Miss Stewart
R: strathspey
M: 4/4
K: Gmajor
D|G>A G>E D>B, G,>c|B>G A>G G<A A>B|G>A G>E D>B, G,>e|d>B c>A B<G G>D|
E>F G>E D>B, G,>c|B>G A>G G<A A>B|G>A G>E D<B, G,>e|d>B c>A B>G G<D|
G>d g2 d>g b>g|a>g b>g e<a a>b|1 G>d g2 (3ggb g>e|d<B A>c B<G G2|2 g<d e>f g>f e>b|d>B A>c B<G G2||

